X:1
T:I Am His Evermore
T:I Am His Evermore
T:Eula Eastep
T:James Rowe, 1919
T:Public Domain Courtesy of the Cyber Hymnal™
C:Eula Eastep
Z:Public Domain
Z:Courtesy of the Cyber Hymnal™
%%score ( 1 2 ) ( 3 4 )
L:1/8
Q:1/4=103
M:4/4
K:F
V:1 treble 
V:2 treble 
V:3 bass 
V:4 bass 
V:1
 [CF][CA] | [Fc]2 [Fc]2 [F=B]2 [Fc]2 | [Fd]2 [Fc]2 A2 [CF][CF] | [CF]2 [FA]2 [FA]2 F2 | %4
w: 1.~The Re-|deem- er dear now|holds my hand, And is|walk- ing by my|
w: 2.~Long out-|side the fold I|grieved my Lord, And was|deaf to mer- cy’s|
w: 3.~I have|wan- dered far, and|test- ed sin, Now I’m|test- ing love di-|
w: 4.~Soul in|sin, look up, be|saved to- day, Trust the|Friend who now is|
 [EG]6 [CF][CG] | [FA]2 [FA]2 [Fc]2 [Fc]2 | [FA]2 [Fc]2 [Fd]2 [Fd][Fd] | [Fc]2 [FA]2 [FA]2 [EG]2 | %8
w: side, And un-|til I reach the|morn- ing land, He will|be my faith- ful|
w: plea, But to-|day I seek the|great re- ward, With His|grace sup- port- ing|
w: vine, And un-|brok- en peace has|been with- in, Since the|day I made Him|
w: mine; He will|roll your bur- den|all a- way, And give|peace and joy di-|
 [CF]6 ||"^Refrain" FA | c6 FG | A6 [Fd][Fd] | c6 FF | G6 FG | A6 dd | c6 [CF][EG] | A6 [EG][EG] | %17
w: guide.|||||||||
w: me.|I am|His, bless His|name, His to|praise and a-|dore; Love di-|vine to pro-|claim, I am|His ev- er-|
w: mine.|||||||||
w: vine.|||||||||
 F6 C2 |] %18
w: |
w: more! *|
w: |
w: |
V:2
 x2 | x8 | x8 | x6 F2 | x8 | x8 | x8 | x8 | x6 || x2 | (F2 E2 F2) x2 | (F2 F2 F2) x2 | %12
 (F2 E2 F2) FF | (E2 E2 E2) x2 | (F2 F2 F2) x2 | (F2 E2 F2) x2 | (F2 F2 F2) x2 | F2 DD x4 |] %18
V:3
 [F,A,]F, | [F,A,]2 [F,A,]2 [F,^G,]2 [F,A,]2 | [F,B,]2 [F,A,]2 [F,C]2 [F,A,][F,A,] | %3
w: |||
 [F,A,]2 [F,C]2 [F,C]2 [A,,C]2 | [C,C]6 [F,A,][F,B,] | [F,C]2 [F,C]2 [F,A,]2 [F,A,]2 | %6
w: |||
 [F,C]2 [F,A,]2 [B,,B,]2 [B,,B,][B,,B,] | [C,A,]2 [C,C]2 [C,C]2 [C,B,]2 | [F,A,]6 || z2 | %10
w: ||||
 [F,A,]2 [C,G,]2 [F,A,]2 z2 | [F,C]2 [D,D]2 [F,C]2 B,B, | [A,C]2 [G,B,]2 [F,A,]2 [D,=B,][D,B,] | %13
w: I am His,|bless His name, * *|* to praise, * *|
 [C,C]2 [C,C]2 [C,C]2 z2 | [F,C]2 [D,D]2 [F,C]2 z2 | [F,A,]2 [C,G,]2 [F,A,]2 A,[G,B,] | %16
w: * a- dore|Love di- vine|to pro- claim, yes, *|
 [F,C]2 [D,D]2 [A,,C]2 [C,B,][C,B,] | A,2 ^G,G, A,2 x2 |] %18
w: * His ev- * *|* er- more! *|
V:4
 x F, | x8 | x8 | x8 | x8 | x8 | x8 | x8 | x6 || x2 | x8 | x6 B,B, | x8 | x8 | x8 | x6 A, x | x8 | %17
 F,6 x2 |] %18

